X: 40702
T: Torth O Fara
R: jig
M: 6/8
K: Gmajor
|:D|G2 G G2 A|GFE D2 D|G2 G B2 B|DEF G2:|
G|B2 B B2 B|dcB A2 A|B2 B B2 B|EFG A2 d|
G2 G G2 A|GFE D2 D|G2 G B2 B|DEF G2||

